cssgg/block.svg

<svg
  width="24"
  height="24"
  viewBox="0 0 24 24"
  fill="none"
  xmlns="http://www.w3.org/2000/svg"
>
  <path
    d="M8.46457 14.1213C8.07404 14.5118 8.07404 15.145 8.46457 15.5355C8.85509 15.926 9.48825 15.926 9.87878 15.5355L15.5356 9.87862C15.9262 9.4881 15.9262 8.85493 15.5356 8.46441C15.1451 8.07388 14.5119 8.07388 14.1214 8.46441L8.46457 14.1213Z"
    fill="currentColor"
  />
  <path
    fill-rule="evenodd"
    clip-rule="evenodd"
    d="M6.34315 17.6569C9.46734 20.781 14.5327 20.781 17.6569 17.6569C20.781 14.5327 20.781 9.46734 17.6569 6.34315C14.5327 3.21895 9.46734 3.21895 6.34315 6.34315C3.21895 9.46734 3.21895 14.5327 6.34315 17.6569ZM16.2426 16.2426C13.8995 18.5858 10.1005 18.5858 7.75736 16.2426C5.41421 13.8995 5.41421 10.1005 7.75736 7.75736C10.1005 5.41421 13.8995 5.41421 16.2426 7.75736C18.5858 10.1005 18.5858 13.8995 16.2426 16.2426Z"
    fill="currentColor"
  />
</svg>

<svg viewBox="0 0 24 24" xmlns="http://www.w3.org/2000/svg"><g><path d="M8.46 14.12c-.4.39-.4 1.02 0 1.41 .39.39 1.02.39 1.41 0l5.65-5.66c.39-.4.39-1.03 0-1.42 -.4-.4-1.03-.4-1.42 0L8.44 14.1Z"/><path fill-rule="evenodd" d="M6.34 17.65c3.12 3.12 8.18 3.12 11.31 0 3.12-3.13 3.12-8.19 0-11.32 -3.13-3.13-8.19-3.13-11.32 0 -3.13 3.12-3.13 8.18 0 11.31Zm9.89-1.42c-2.35 2.34-6.15 2.34-8.49 0 -2.35-2.35-2.35-6.15 0-8.49 2.34-2.35 6.14-2.35 8.48 0 2.34 2.34 2.34 6.14 0 8.48Z"/></g></svg>
